X:3820
L:1/8
M:2/4
K:A
 AA/B/cc | BBAE | cc/d/ee | dd c2 | AA/B/cc | BBAE | cc/d/ee | dd c2 | eef>e | dd e2 | cc d2 | 
 cc B2 | ccdd | e/f/e/d/ c2 |]

